flaticon/baby/baby.svg

<svg xmlns="http://www.w3.org/2000/svg" width="32" height="32" viewBox="0 0 24 24">
    <path d="M10.039062 12.019531C10.199219 11.855469 10.199219 11.59375 10.039062 11.433594 8.808594 10.203125 6.804688 10.203125 5.570312 11.433594 5.410156 11.59375 5.410156 11.855469 5.570312 12.019531 5.734375 12.179688 5.996094 12.179688 6.15625 12.019531 7.066406 11.109375 8.546875 11.109375 9.453125 12.019531 9.535156 12.101562 9.640625 12.140625 9.746094 12.140625 9.851562 12.140625 9.957031 12.101562 10.039062 12.019531zM16.089844 10.507812C15.246094 10.507812 14.453125 10.835938 13.855469 11.433594 13.695312 11.59375 13.695312 11.859375 13.855469 12.019531 14.019531 12.179688 14.28125 12.179688 14.441406 12.019531 14.882812 11.578125 15.46875 11.335938 16.089844 11.335938 16.710938 11.335938 17.296875 11.578125 17.738281 12.019531 17.816406 12.101562 17.925781 12.140625 18.03125 12.140625 18.136719 12.140625 18.242188 12.101562 18.324219 12.019531 18.484375 11.855469 18.484375 11.59375 18.324219 11.433594 17.726562 10.835938 16.933594 10.507812 16.089844 10.507812zM13.5625 17.949219C12.671875 18.839844 11.222656 18.839844 10.332031 17.949219 10.167969 17.789062 9.90625 17.789062 9.746094 17.949219 9.582031 18.109375 9.582031 18.371094 9.746094 18.535156 10.351562 19.140625 11.148438 19.445312 11.949219 19.445312 12.746094 19.445312 13.542969 19.140625 14.148438 18.535156 14.3125 18.371094 14.3125 18.109375 14.148438 17.949219 13.988281 17.785156 13.726562 17.789062 13.5625 17.949219zM13.5625 17.949219"/>
    <path d="M 24 13.617188 C 24 12.355469 23.105469 11.316406 21.964844 11.199219 C 21.105469 7.296875 18.011719 4.222656 14.097656 3.398438 L 14.097656 2.449219 C 14.097656 2.222656 13.910156 2.035156 13.683594 2.035156 C 13.453125 2.035156 13.269531 2.222656 13.269531 2.449219 L 13.269531 3.261719 C 12.996094 3.226562 12.71875 3.203125 12.441406 3.191406 L 12.441406 0.792969 C 12.441406 0.566406 12.253906 0.378906 12.027344 0.378906 C 11.796875 0.378906 11.613281 0.566406 11.613281 0.792969 L 11.613281 3.1875 C 11.332031 3.199219 11.058594 3.21875 10.785156 3.253906 L 10.785156 2.449219 C 10.785156 2.222656 10.597656 2.035156 10.371094 2.035156 C 10.140625 2.035156 9.957031 2.222656 9.957031 2.449219 L 9.957031 3.382812 C 6.003906 4.183594 2.871094 7.273438 2.007812 11.203125 C 0.878906 11.335938 0 12.367188 0 13.617188 C 0 14.90625 0.9375 15.960938 2.113281 16.039062 C 3.28125 20.398438 7.265625 23.621094 11.988281 23.621094 C 16.707031 23.621094 20.691406 20.402344 21.859375 16.042969 C 23.050781 15.976562 24 14.917969 24 13.617188 Z M 0.828125 13.617188 C 0.828125 12.890625 1.261719 12.28125 1.855469 12.085938 C 1.796875 12.515625 1.765625 12.953125 1.765625 13.398438 C 1.765625 14.003906 1.824219 14.597656 1.921875 15.171875 C 1.296875 15.003906 0.828125 14.371094 0.828125 13.617188 Z M 11.988281 22.792969 C 6.808594 22.792969 2.59375 18.578125 2.59375 13.398438 C 2.59375 8.917969 5.75 5.164062 9.957031 4.230469 L 9.957031 5.761719 C 9.957031 5.992188 10.140625 6.175781 10.371094 6.175781 C 10.597656 6.175781 10.785156 5.992188 10.785156 5.761719 L 10.785156 4.085938 C 11.058594 4.050781 11.332031 4.027344 11.613281 4.015625 L 11.613281 5.761719 C 11.613281 5.992188 11.796875 6.175781 12.027344 6.175781 C 12.253906 6.175781 12.441406 5.992188 12.441406 5.761719 L 12.441406 4.019531 C 12.71875 4.03125 12.996094 4.058594 13.269531 4.097656 L 13.269531 5.761719 C 13.269531 5.992188 13.453125 6.175781 13.683594 6.175781 C 13.910156 6.175781 14.097656 5.992188 14.097656 5.761719 L 14.097656 4.25 C 18.261719 5.210938 21.378906 8.945312 21.378906 13.398438 C 21.378906 18.578125 17.167969 22.792969 11.988281 22.792969 Z M 22.046875 15.183594 C 22.152344 14.601562 22.207031 14.007812 22.207031 13.398438 C 22.207031 12.949219 22.175781 12.511719 22.117188 12.078125 C 22.722656 12.261719 23.171875 12.878906 23.171875 13.617188 C 23.171875 14.382812 22.6875 15.027344 22.046875 15.183594 Z M 22.046875 15.183594"/>
</svg>

<svg xmlns="http://www.w3.org/2000/svg" width="32" height="32" viewBox="0 0 24 24">
    <path d="M10.04 12.02a.417.417 0 0 0 0-.586 3.166 3.166 0 0 0-4.47 0 .417.417 0 0 0 0 .586c.164.16.426.16.586 0 .91-.91 2.39-.91 3.297 0a.41.41 0 0 0 .293.12.41.41 0 0 0 .293-.12zm0 0M16.09 10.508c-.844 0-1.637.328-2.235.926a.417.417 0 0 0 0 .586c.165.16.426.16.586 0a2.317 2.317 0 0 1 1.649-.684c.62 0 1.207.242 1.648.684a.404.404 0 0 0 .293.12.41.41 0 0 0 .293-.12.417.417 0 0 0 0-.586 3.138 3.138 0 0 0-2.234-.926zm0 0M13.563 17.95c-.891.89-2.34.89-3.231 0a.417.417 0 0 0-.586 0 .41.41 0 0 0 0 .585c.606.606 1.402.91 2.203.91.797 0 1.594-.304 2.2-.91a.41.41 0 0 0 0-.586.414.414 0 0 0-.586 0zm0 0"/>
    <path d="M24 13.617c0-1.262-.895-2.3-2.035-2.418a10.248 10.248 0 0 0-7.867-7.8v-.95a.414.414 0 0 0-.828 0v.813a9.726 9.726 0 0 0-.829-.07V.792a.414.414 0 0 0-.828 0v2.394a9.596 9.596 0 0 0-.828.067v-.805a.414.414 0 0 0-.828 0v.934a10.25 10.25 0 0 0-7.95 7.82C.88 11.336 0 12.367 0 13.617c0 1.29.938 2.344 2.113 2.422 1.168 4.36 5.153 7.582 9.875 7.582 4.719 0 8.703-3.219 9.871-7.578C23.051 15.977 24 14.918 24 13.617zm-23.172 0c0-.726.434-1.336 1.027-1.531-.058.43-.09.867-.09 1.312 0 .606.06 1.2.157 1.774-.625-.168-1.094-.8-1.094-1.555zm11.16 9.176c-5.18 0-9.394-4.215-9.394-9.395 0-4.48 3.156-8.234 7.363-9.168v1.532a.414.414 0 0 0 .828 0V4.086c.274-.035.547-.059.828-.07v1.746a.414.414 0 0 0 .828 0V4.02c.278.011.555.039.829.078v1.664a.414.414 0 0 0 .828 0V4.25c4.164.96 7.28 4.695 7.28 9.148 0 5.18-4.21 9.395-9.39 9.395zm10.059-7.61a9.982 9.982 0 0 0 .07-3.105c.606.184 1.055.8 1.055 1.54 0 .765-.485 1.41-1.125 1.566zm0 0"/>
</svg>
